assets/illustrations/multisize/48/photowatermark.svg

<?xml version="1.0" encoding="utf-8"?>
<!-- Generator: Adobe Illustrator 21.1.0, SVG Export Plug-In . SVG Version: 6.00 Build 0)  -->
<svg version="1.1" xmlns="http://www.w3.org/2000/svg" xmlns:xlink="http://www.w3.org/1999/xlink" x="0px" y="0px"
	 viewBox="0 0 48 48" enable-background="new 0 0 48 48" xml:space="preserve">
<g id="TEMPLATE" display="none">
	<g display="inline">
		<path fill="#D0D0D0" d="M48,0v48H0V0H48 M49-1h-1H0h-1v1v48v1h1h48h1v-1V0V-1L49-1z"/>
	</g>
	<g display="inline" opacity="0.1">
		<path fill="#FF3A6D" d="M45,3v42H3V3H45 M48,0H0v48h48V0L48,0z"/>
	</g>
</g>
<g id="ICONS">
	<g>
		<path fill="#949494" d="M37,20c1.6567,0,3-1.3433,3-3s-1.3433-3-3-3s-3,1.3433-3,3S35.3433,20,37,20z M37,15c1.103,0,2,0.8975,2,2
			s-0.897,2-2,2s-2-0.8975-2-2S35.897,15,37,15z"/>
		<path fill="#949494" d="M3,9v1v29h41h1V9H3z M4,38v-9.293l10.5-10.5L24.793,28.5l0.707,0.707L34.293,38H4z M44,38h-8.293l-9.5-9.5
			l5.293-5.293l12.5,12.5V38z M44,34.293l-12.5-12.5l-6,6l-11-11L4,27.293V10h40V34.293z"/>
	</g>
</g>
</svg>

<svg id="06106f8d-e3fb-491b-939b-20712f781bb7" data-name="ICONS" xmlns="http://www.w3.org/2000/svg" viewBox="0 0 48 48"><title>FileTypeIcons_Master_All_NEW</title><path d="M37,20a3,3,0,1,0-3-3A3.00015,3.00015,0,0,0,37,20Zm0-5a2,2,0,1,1-2,2A2.00229,2.00229,0,0,1,37,15Z" fill="#949494"/><path d="M3,9V39H45V9ZM4,38V28.707l10.5-10.5L24.793,28.5l.707.707L34.293,38Zm40,0H35.707l-9.5-9.5L31.5,23.207,44,35.707Zm0-3.707-12.5-12.5-6,6-11-11L4,27.293V10H44Z" fill="#949494"/></svg>
